X:83
T:Polka d\`el Grawi\`ete
C:Traditional
O:Wallonie
R:Polka
Z:Bert Van Vreckem <http://flanders.blackmill.net/music/>
M:2/4
L:1/8
K:F
P:A
FG|AA BA|Gz/E/ EF|Gz/c/ cB|Az FG|AA BA|Gz/E/ EF|G2c2|F2||
P:B
FG|AF GA|B2 GA|BA Bc|BA FG|AA BA|G2 EF|GG AG|G C||
